X: 84
T:The Bob of Fettercairn
G:reel
S:Kerr's MM v1 p24
M:C
L:1/8
Q:1/2=104
K:GLyd
Bc||dBGB dBGB|dBdg f2df|ecAc ecAc|edef gage |
    dBGB dBGB|dBdg f2df|afge fdgB|AABd e2eg||
    dgBg dgBg|dgBg f2df|eaca eaca|edef gage |
    dgBg dgBg|dgBg f2df|afge fdgB|AABd e2eg|]

though it has a relative which seems to be partially derived from it as
the result of a fiddler's memory lapse mixing two tunes up:

